!!!OTL: WOHL AUF ES RUFT DER SONNENSCHEIN
!!!ARE: Europa, Mitteleuropa, Deutschland
!!!SCT: B0517
!!!YEM: Copyright 1995, estate of Helmut Schaffrath.
**kern
*ICvox
*Ivox
*M2/4
*k[]
*C:
{8cc
=1
8g
8e
8f
8a
=2
8.g
16e
8c}
{16d
16e
=3
8f
8e
8d
8c
=4
4.g}
{8cc
=5
8g
8e
8f
8a
=6
8.g
16e
8c}
{16cc
16b
=7
8a
8a
8dd
8dd
=8
4g
8r}
{8g
=9
16b
16cc
16dd
16b
16cc
16dd
16ee
16cc
=10
16b
16cc
16dd
16b
8g}
{8g
=11
8ff
8ee
8dd
8cc
=12
4b
8r}
{8g
=13
16c
16d
16e
16f
16g
16a
16b
16cc
=14
8.g
16f
8e}
{8cc
=15
8f
8f
8g
8g
=16
4c
8r}
==
!!!AGN: Wander - Lied
!!!ONB: ESAC (Essen Associative Code) Database: BOEHME
!!!AMT: simple duple
!!!AIN: vox
!!!EED: Helmut Schaffrath
!!!EEV: 1.0
*-
